img/footer/call-calling.svg

<svg width="20" height="20" viewBox="0 0 20 20" fill="none" xmlns="http://www.w3.org/2000/svg">
<path d="M18.3083 15.2748C18.3083 15.5748 18.2416 15.8832 18.1 16.1832C17.9583 16.4832 17.775 16.7665 17.5333 17.0332C17.125 17.4832 16.675 17.8082 16.1666 18.0165C15.6666 18.2248 15.125 18.3332 14.5416 18.3332C13.6916 18.3332 12.7833 18.1332 11.825 17.7248C10.8666 17.3165 9.90829 16.7665 8.95829 16.0748C7.99996 15.3748 7.09163 14.5998 6.22496 13.7415C5.36663 12.8748 4.59163 11.9665 3.89996 11.0165C3.21663 10.0665 2.66663 9.1165 2.26663 8.17484C1.86663 7.22484 1.66663 6.3165 1.66663 5.44984C1.66663 4.88317 1.76663 4.3415 1.96663 3.8415C2.16663 3.33317 2.48329 2.8665 2.92496 2.44984C3.45829 1.92484 4.04163 1.6665 4.65829 1.6665C4.89163 1.6665 5.12496 1.7165 5.33329 1.8165C5.54996 1.9165 5.74163 2.0665 5.89163 2.28317L7.82496 5.00817C7.97496 5.2165 8.08329 5.40817 8.15829 5.5915C8.23329 5.7665 8.27496 5.9415 8.27496 6.09984C8.27496 6.29984 8.21663 6.49984 8.09996 6.6915C7.99163 6.88317 7.83329 7.08317 7.63329 7.28317L6.99996 7.9415C6.90829 8.03317 6.86663 8.1415 6.86663 8.27484C6.86663 8.3415 6.87496 8.39984 6.89163 8.4665C6.91663 8.53317 6.94163 8.58317 6.95829 8.63317C7.10829 8.90817 7.36663 9.2665 7.73329 9.69984C8.10829 10.1332 8.50829 10.5748 8.94163 11.0165C9.39163 11.4582 9.82496 11.8665 10.2666 12.2415C10.7 12.6082 11.0583 12.8582 11.3416 13.0082C11.3833 13.0248 11.4333 13.0498 11.4916 13.0748C11.5583 13.0998 11.625 13.1082 11.7 13.1082C11.8416 13.1082 11.95 13.0582 12.0416 12.9665L12.675 12.3415C12.8833 12.1332 13.0833 11.9748 13.275 11.8748C13.4666 11.7582 13.6583 11.6998 13.8666 11.6998C14.025 11.6998 14.1916 11.7332 14.375 11.8082C14.5583 11.8832 14.75 11.9915 14.9583 12.1332L17.7166 14.0915C17.9333 14.2415 18.0833 14.4165 18.175 14.6248C18.2583 14.8332 18.3083 15.0415 18.3083 15.2748Z" stroke="#475569" stroke-width="1.5" stroke-miterlimit="10"/>
<path d="M15.4167 7.49967C15.4167 6.99967 15.025 6.23301 14.4417 5.60801C13.9083 5.03301 13.2 4.58301 12.5 4.58301" stroke="#475569" stroke-width="1.5" stroke-linecap="round" stroke-linejoin="round"/>
<path d="M18.3333 7.49984C18.3333 4.27484 15.725 1.6665 12.5 1.6665" stroke="#475569" stroke-width="1.5" stroke-linecap="round" stroke-linejoin="round"/>
</svg>

<svg xmlns="http://www.w3.org/2000/svg" width="20" height="20" fill="none"><path stroke="#475569" stroke-miterlimit="10" stroke-width="1.5" d="M18.308 15.275c0 .3-.066.608-.208.908a3.44 3.44 0 0 1-.567.85c-.408.45-.858.775-1.366.983-.5.209-1.042.317-1.625.317-.85 0-1.759-.2-2.717-.608a14.632 14.632 0 0 1-2.867-1.65 23.962 23.962 0 0 1-2.733-2.333A23.682 23.682 0 0 1 3.9 11.015c-.683-.95-1.233-1.9-1.633-2.841-.4-.95-.6-1.859-.6-2.725 0-.567.1-1.109.3-1.609.2-.508.516-.975.958-1.391.533-.525 1.117-.784 1.733-.784.234 0 .467.05.675.15.217.1.409.25.559.467l1.933 2.725c.15.208.258.4.333.583.075.175.117.35.117.509 0 .2-.058.4-.175.591a2.834 2.834 0 0 1-.467.592L7 7.941a.446.446 0 0 0-.133.334c0 .066.008.125.025.191.025.067.05.117.066.167.15.275.409.634.775 1.067.375.433.775.875 1.209 1.317.45.441.883.85 1.325 1.225.433.366.791.616 1.075.766.041.017.091.042.15.067a.576.576 0 0 0 .208.033c.142 0 .25-.05.342-.142l.633-.624c.208-.209.408-.367.6-.467a1.11 1.11 0 0 1 .592-.175c.158 0 .325.033.508.108s.375.184.583.325l2.759 1.959c.216.15.366.324.458.533.083.208.133.416.133.65Z"/><path stroke="#475569" stroke-linecap="round" stroke-linejoin="round" stroke-width="1.5" d="M15.417 7.5c0-.5-.392-1.267-.975-1.892-.534-.575-1.242-1.025-1.942-1.025M18.333 7.5A5.829 5.829 0 0 0 12.5 1.667"/></svg>
